X: 2099
T: LADY BETTY COCHRANE
C:
Q: "Reel."
R: Reel.
%R: reel
B: James Kerr "Merry Melodies" v.2 p.13 #099
Z: 2016 John Chambers <jc:trillian.mit.edu>
M: C
L: 1/8
K: C
ue |\
c2(GE) CEGE | FDd^c dAAB |\
cGFE Gcea | gcfd ecc :|\
ue |\
c/c/c (ec) gcec | Gcec adde |
c/c/c (ec) gcec | Gc (B/c/d) (ec)ce |\
c2 (e/d/c) (gc) (e/d/c) | Gc (e/d/c) (ad)de |\
cdAc GAca | gcfd ecc |]
